images/uhoo.svg

<svg fill="none" height="27" viewBox="0 0 100 27" width="100" xmlns="http://www.w3.org/2000/svg"><path clip-rule="evenodd" d="m19.5032 13.8791c0 11.7284 1.3683 12.1439 3.5041 12.1439 2.9797 0 12.7651-5.0545 12.7651-9.17 0-4.6081-10.8147-16.85280909-13.5163-16.85280909-.9171 0-2.7529 2.14958909-2.7529 13.87890909zm-19.5032 2.9738c0 4.1154 9.78537 9.1699 12.765 9.1699 2.1358 0 3.5041-.4155 3.5041-12.1439 0-11.72931-1.8358-13.8789-2.7528-13.8789-2.7017 0-13.5163 12.2447-13.5163 16.8529zm89.4312-.9958c0 2.9187 2.3658 5.2845 5.2845 5.2845s5.2843-2.3658 5.2843-5.2845-2.3656-5.2846-5.2843-5.2846-5.2845 2.3659-5.2845 5.2846zm1.6258 0c0-2.0204 1.6382-3.6586 3.6585-3.6586s3.6586 1.6382 3.6586 3.6586c0 2.0203-1.6383 3.6585-3.6586 3.6585s-3.6585-1.6382-3.6585-3.6585zm-16.2604 0c0 2.9187 2.3658 5.2845 5.2845 5.2845s5.2846-2.3658 5.2846-5.2845-2.3659-5.2846-5.2846-5.2846-5.2845 2.3659-5.2845 5.2846zm1.6265 0c0-2.0204 1.6383-3.6586 3.6586-3.6586s3.6585 1.6382 3.6585 3.6586c0 2.0203-1.6382 3.6585-3.6585 3.6585s-3.6586-1.6382-3.6586-3.6585zm-17.0734-2.0326h9.7561v7.3171h1.626v-16.26017h-1.626v7.31707h-9.7561v-7.31707h-1.6261v16.26017h1.6261zm-9.0789 7.3171c.6464 0 1.248-.1796 1.7618-.4853v.4853h1.626v-3.3032-7.2659h-1.626v7.1643c0 .9829-.9097 1.7788-2.0325 1.7788h-.4065c-1.3472 0-2.439-.9553-2.439-2.1341v-6.809h-1.6261v6.6057c0 2.1886 1.8204 3.9634 4.0651 3.9634z" fill="#fff" fill-rule="evenodd"/></svg>

<svg width="100" height="27" viewBox="0 0 100 27" fill="none" xmlns="http://www.w3.org/2000/svg">
<path fill-rule="evenodd" clip-rule="evenodd" d="M19.5032 13.8791C19.5032 25.6075 20.8715 26.023 23.0073 26.023C25.987 26.023 35.7724 20.9685 35.7724 16.853C35.7724 12.2449 24.9577 0.000190912 22.2561 0.000190912C21.339 0.000190912 19.5032 2.14978 19.5032 13.8791ZM0 16.8529C0 20.9683 9.78537 26.0228 12.765 26.0228C14.9008 26.0228 16.2691 25.6073 16.2691 13.8789C16.2691 2.14959 14.4333 0 13.5163 0C10.8146 0 0 12.2447 0 16.8529ZM89.4312 15.8571C89.4312 18.7758 91.797 21.1416 94.7157 21.1416C97.6344 21.1416 100 18.7758 100 15.8571C100 12.9384 97.6344 10.5725 94.7157 10.5725C91.797 10.5725 89.4312 12.9384 89.4312 15.8571ZM91.057 15.8571C91.057 13.8367 92.6952 12.1985 94.7155 12.1985C96.7358 12.1985 98.3741 13.8367 98.3741 15.8571C98.3741 17.8774 96.7358 19.5156 94.7155 19.5156C92.6952 19.5156 91.057 17.8774 91.057 15.8571ZM74.7966 15.8571C74.7966 18.7758 77.1624 21.1416 80.0811 21.1416C82.9998 21.1416 85.3657 18.7758 85.3657 15.8571C85.3657 12.9384 82.9998 10.5725 80.0811 10.5725C77.1624 10.5725 74.7966 12.9384 74.7966 15.8571ZM76.4231 15.8571C76.4231 13.8367 78.0614 12.1985 80.0817 12.1985C82.102 12.1985 83.7402 13.8367 83.7402 15.8571C83.7402 17.8774 82.102 19.5156 80.0817 19.5156C78.0614 19.5156 76.4231 17.8774 76.4231 15.8571ZM59.3497 13.8245H69.1058V21.1416H70.7318V4.88143H69.1058V12.1985H59.3497V4.88143H57.7236V21.1416H59.3497V13.8245ZM50.2708 21.1416C50.9172 21.1416 51.5188 20.962 52.0326 20.6563V21.1416H53.6586V17.8384V10.5725H52.0326V17.7368C52.0326 18.7197 51.1229 19.5156 50.0001 19.5156H49.5936C48.2464 19.5156 47.1546 18.5603 47.1546 17.3815V10.5725H45.5285V17.1782C45.5285 19.3668 47.3489 21.1416 49.5936 21.1416H50.2708Z" fill="white"/>
</svg>
